X:1
T:Avant-deux : Vieil avant-deux
E:12
Z:Roger Ngaret (94-95)
R:avantdeux
C:Trad.
S:
A:Bretagne
M:2/4
L:1/16
K:C
Q:1/4=120
"C"G2c2 c2d2 | c2cB "G"A4 | "C"G2c2 "G"B2c2 | d2B2 "C"c4 ::\
c2e2 "G"d4 | "C"c2A2 "G"d4 | "C"c2BA "G"G2G2 |1\
"C"c2d2 e2c2 :|2 c2d2 c4 |]
